X:1
T:Title
%%score ( 1 2 ) { 3 | 4 }
L:1/8
Q:1/4=200
M:2/2
K:Bb
V:1 treble nm="Grand Piano, Unnamed-000"
V:2 treble 
V:3 bass nm="Choir Pad, Blaenhafren, 87.87 D"
V:4 bass 
V:1
 [DG]4 [DG]4 | F3 G [DF]4 | B3 A [DG]4 | A3 G [D^F]4 | [DG]4 [DG]4 | [D^F]4 [DG]4 | %6
w: By~Welsh~melody *||||||
 [EA]4 ^F2- [CF]2 | [B,G]8 | [DG]4 [DG]4 | F3 E [B,D]4 | B3 A [DG]4 | A3 G [D^F]4 | [DG]4 [DG]4 | %13
w: |||||||
 [D^F]4 [DG]4 | [EA]4 [D^F]4 | [DG]8 | B3 c d2- [^Fd]2 | B3 c d2- [^Fd]2 | B3 c d2- [Gd]2 | %19
w: ||||||
 [Fd]4 [Fc]4 | [FB]6 [FA]2 | [FB]6 [^FA]2 | z2 A2 B2 c2 | [^Fd]8 | [DG]4 [DG]4 | F4 z4 | %26
w: |||||||
 B3 A [DG]4 | A3 G [D^F]4 | [DG]4 [DG]4 | [D^F]4 [DG]4 | [EA]4 ^F2- [CF]2 | [B,G]8- | [B,G]4 z4 |] %33
w: |||||||
V:2
 x8 | D4 z4 | D4 z4 | E4 z4 | x8 | x8 | z4 .D4 | x8 | x8 | C4 z4 | D4 z4 | E4 z4 | x8 | x8 | x8 | %15
 x8 | G4 .G4 | G4 .G4 | G4 .F4 | x8 | x8 | x8 | G4 G4 | x8 | x8 | C3- [CE] [B,D]4 | D4 z4 | E4 z4 | %28
 x8 | x8 | z4 .D4 | x8 | x8 |] %33
V:3
 B,4 B,4 | C3 F, F,4 | G,3 ^F, G,2 D2 | C3 B, A,4 | G,4 B,4 | A,4 G,4 | C4 A,4 | G,8 | B,4 B,4 | %9
 C3 F, F,4 | G,3 ^F, G,2 D2 | C3 B, A,4 | G,4 B,4 | A,4 G,4 | C4 C4 | B,8 | D3 C B,2 C2 | %17
 D3 C B,2 C2 | D4[K:bass] B,4 | B,4 A,4 | B,6 C2 | D6 C2 | B,2 A,2 G,4 | A,8 | G,3 A, B,4 | %25
 C3 F, F,4 | G,3 ^F, G,2 D2 | C3 B, A,4 | G,4 B,4 | A,4 G,4 | C4 A,4 | G,8- | G,4 z4 |] %33
V:4
 G,,4 G,,4 | A,,4 B,,4 | G,,3 A,, B,,4 | C,4 D,4 | B,,4 G,,4 | D,3 C, B,,4 | C,4 D,4 | G,,8 | %8
 G,,4 G,,4 | A,,4 B,,4 | G,,3 A,, B,,4 | C,4 D,4 | B,,4 G,,4 | D,3 C, B,,4 | C,4 D,4 | G,,8 | %16
 G,3 A, z2 A,2 | G,3 A, z2 A,2 | G,4 D,2 E,2 | F,4 F,4 | D,2 C,2 D,2 E,2 | D,2 C,2 B,,2 D,2 | %22
 G,4 E,4 | D,8 | B,,3 A,, G,,4 | A,,4 B,,4 | G,,3 A,, B,,4 | C,4 D,4 | B,,4 G,,4 | D,3 C, B,,4 | %30
 C,4 D,4 | G,,8- | G,,4 z4 |] %33

